;FLAVOR:Marlin
;TIME:507
;Filament used: 0.300033m
;Layer height: 0.28
;MINX:104.355
;MINY:99.804
;MINZ:0.28
;MAXX:135.133
;MAXY:130.58
;MAXZ:10.08
;Generated with Cura_SteamEngine 4.13.1
M140 S50
M105
M190 S50
M104 S200
M105
M109 S200
M82 ;absolute extrusion mode
; Ender 3 Custom Start G-code
G92 E0 ; Reset Extruder
G28 ; Home all axes
G1 Z2.0 F3000 ; Move Z Axis up little to prevent scratching of Heat Bed
G1 X0.1 Y20 Z0.3 F5000.0 ; Move to start position
G1 X0.1 Y200.0 Z0.3 F1500.0 E15 ; Draw the first line
G1 X0.4 Y200.0 Z0.3 F5000.0 ; Move to side a little
G1 X0.4 Y20 Z0.3 F1500.0 E30 ; Draw the second line
G92 E0 ; Reset Extruder
G1 Z2.0 F3000 ; Move Z Axis up little to prevent scratching of Heat Bed
G1 X5 Y20 Z0.3 F5000.0 ; Move over to prevent blob squish
M141 S28
G92 E0
G92 E0
G1 F2700 E-5
;LAYER_COUNT:36
;LAYER:0
M107
G0 F6000 X108.849 Y104.316 Z0.28
;TYPE:SKIRT
G1 F2700 E0
G1 F1200 X109.473 Y103.724 E0.04005
G1 X110.098 Y103.194 E0.07821
G1 X110.766 Y102.687 E0.11726
G1 X111.449 Y102.224 E0.15568
G1 X112.168 Y101.791 E0.19476
G1 X112.893 Y101.406 E0.23299
G1 X113.661 Y101.05 E0.2724
G1 X114.428 Y100.744 E0.31086
G1 X115.237 Y100.472 E0.3506
G1 X116.028 Y100.253 E0.38882
G1 X116.851 Y100.072 E0.42805
G1 X117.665 Y99.939 E0.46646
G1 X118.496 Y99.849 E0.50538
G1 X119.317 Y99.804 E0.54367
G1 X120.171 Y99.804 E0.58343
G1 X120.991 Y99.849 E0.62167
G1 X121.822 Y99.939 E0.66059
G1 X122.636 Y100.072 E0.699
G1 X123.468 Y100.255 E0.73867
G1 X124.259 Y100.475 E0.7769
G1 X125.051 Y100.742 E0.81582
G1 X125.818 Y101.047 E0.85425
G1 X126.594 Y101.406 E0.89406
G1 X127.319 Y101.791 E0.93229
G1 X128.038 Y102.224 E0.97137
G1 X128.721 Y102.687 E1.00979
G1 X129.389 Y103.194 E1.04884
G1 X130.014 Y103.724 E1.087
G1 X130.638 Y104.316 E1.12705
G1 X131.205 Y104.916 E1.16549
G1 X131.741 Y105.546 E1.20401
G1 X132.24 Y106.201 E1.24235
G1 X132.718 Y106.907 E1.28205
G1 X133.141 Y107.61 E1.32025
G1 X133.536 Y108.353 E1.35944
G1 X133.882 Y109.1 E1.39777
G1 X134.198 Y109.894 E1.43756
G1 X134.46 Y110.674 E1.47588
G1 X134.681 Y111.47 E1.51434
G1 X134.859 Y112.273 E1.55264
G1 X134.998 Y113.118 E1.59252
G1 X135.087 Y113.937 E1.63088
G1 X135.133 Y114.78 E1.67019
G1 X135.133 Y115.602 E1.70847
G1 X135.087 Y116.445 E1.74778
G1 X134.998 Y117.264 E1.78614
G1 X134.86 Y118.105 E1.82582
G1 X134.682 Y118.91 E1.86421
G1 X134.461 Y119.707 E1.90272
G1 X134.2 Y120.485 E1.94094
G1 X133.883 Y121.282 E1.98087
G1 X133.537 Y122.029 E2.01921
G1 X133.143 Y122.771 E2.05833
G1 X132.719 Y123.476 E2.09663
G1 X132.24 Y124.183 E2.1364
G1 X131.741 Y124.838 E2.17474
G1 X131.205 Y125.468 E2.21326
G1 X130.638 Y126.068 E2.2517
G1 X130.014 Y126.66 E2.29175
G1 X129.389 Y127.19 E2.32991
G1 X128.721 Y127.697 E2.36896
G1 X128.038 Y128.16 E2.40738
G1 X127.319 Y128.593 E2.44646
G1 X126.594 Y128.978 E2.48468
G1 X125.826 Y129.334 E2.5241
G1 X125.059 Y129.64 E2.56255
G1 X124.25 Y129.912 E2.6023
G1 X123.459 Y130.131 E2.64051
G1 X122.636 Y130.312 E2.67975
G1 X121.822 Y130.445 E2.71816
G1 X120.991 Y130.535 E2.75708
G1 X120.171 Y130.58 E2.79532
G1 X119.317 Y130.58 E2.83508
G1 X118.496 Y130.535 E2.87337
G1 X117.665 Y130.445 E2.91229
G1 X116.851 Y130.312 E2.9507
G1 X116.019 Y130.129 E2.99037
G1 X115.228 Y129.909 E3.0286
G1 X114.436 Y129.642 E3.06751
G1 X113.669 Y129.337 E3.10595
G1 X112.893 Y128.978 E3.14576
G1 X112.168 Y128.593 E3.18399
G1 X111.449 Y128.16 E3.22307
G1 X110.766 Y127.697 E3.26149
G1 X110.098 Y127.19 E3.30054
G1 X109.473 Y126.66 E3.3387
G1 X108.849 Y126.068 E3.37875
G1 X108.282 Y125.468 E3.41719
G1 X107.746 Y124.838 E3.45571
G1 X107.247 Y124.183 E3.49405
G1 X106.768 Y123.476 E3.53381
G1 X106.344 Y122.771 E3.57212
G1 X105.95 Y122.029 E3.61124
G1 X105.604 Y121.282 E3.64957
G1 X105.284 Y120.476 E3.68995
G1 X105.024 Y119.698 E3.72815
G1 X104.806 Y118.91 E3.76622
G1 X104.628 Y118.105 E3.80461
G1 X104.49 Y117.266 E3.8442
G1 X104.401 Y116.449 E3.88247
G1 X104.355 Y115.604 E3.92188
G1 X104.355 Y114.782 E3.96015
G1 X104.401 Y113.939 E3.99946
G1 X104.49 Y113.12 E4.03782
G1 X104.628 Y112.279 E4.07751
G1 X104.806 Y111.474 E4.1159
G1 X105.024 Y110.686 E4.15397
G1 X105.284 Y109.908 E4.19216
G1 X105.604 Y109.102 E4.23254
G1 X105.95 Y108.355 E4.27088
G1 X106.344 Y107.613 E4.31
G1 X106.768 Y106.908 E4.34831
G1 X107.247 Y106.201 E4.38807
G1 X107.746 Y105.546 E4.42641
G1 X108.282 Y104.916 E4.46493
G1 X108.849 Y104.316 E4.50337
G0 F6000 X109.14 Y104.59
G1 F1200 X109.732 Y104.029 E4.54135
G1 X110.357 Y103.499 E4.5795
G1 X110.991 Y103.018 E4.61656
G1 X111.674 Y102.555 E4.65498
G1 X112.355 Y102.144 E4.69202
G1 X113.08 Y101.759 E4.73024
G1 X113.809 Y101.422 E4.76764
G1 X114.576 Y101.116 E4.80609
G1 X115.343 Y100.857 E4.84379
G1 X116.134 Y100.638 E4.88201
G1 X116.916 Y100.467 E4.91928
G1 X117.73 Y100.334 E4.95769
G1 X118.518 Y100.248 E4.9946
G1 X119.339 Y100.203 E5.03288
G1 X120.149 Y100.203 E5.0706
G1 X120.969 Y100.248 E5.10884
G1 X121.757 Y100.334 E5.14575
G1 X122.571 Y100.467 E5.18416
G1 X123.361 Y100.641 E5.22182
G1 X124.152 Y100.861 E5.26005
G1 X124.903 Y101.114 E5.29695
G1 X125.67 Y101.419 E5.33539
G1 X126.407 Y101.759 E5.37318
G1 X127.132 Y102.144 E5.41141
G1 X127.813 Y102.555 E5.44844
G1 X128.496 Y103.018 E5.48687
G1 X129.13 Y103.499 E5.52392
G1 X129.755 Y104.029 E5.56208
G1 X130.347 Y104.59 E5.60006
G1 X130.914 Y105.19 E5.6385
G1 X131.422 Y105.789 E5.67507
G1 X131.921 Y106.444 E5.71341
G1 X132.376 Y107.113 E5.75109
G1 X132.799 Y107.816 E5.78929
G1 X133.173 Y108.521 E5.82645
G1 X133.519 Y109.268 E5.86478
G1 X133.819 Y110.022 E5.90257
G1 X134.081 Y110.802 E5.94088
G1 X134.291 Y111.557 E5.97737
G1 X134.469 Y112.36 E6.01567
G1 X134.601 Y113.162 E6.05352
G1 X134.69 Y113.981 E6.09188
G1 X134.733 Y114.78 E6.12914
G1 X134.733 Y115.602 E6.16742
G1 X134.69 Y116.401 E6.20467
G1 X134.601 Y117.22 E6.24303
G1 X134.469 Y118.019 E6.28074
G1 X134.291 Y118.824 E6.31913
G1 X134.082 Y119.58 E6.35566
G1 X133.821 Y120.358 E6.39387
G1 X133.52 Y121.114 E6.43176
G1 X133.174 Y121.861 E6.47009
G1 X132.8 Y122.565 E6.50721
G1 X132.376 Y123.27 E6.54552
G1 X131.921 Y123.94 E6.58323
G1 X131.422 Y124.595 E6.62157
G1 X130.914 Y125.194 E6.65814
G1 X130.347 Y125.794 E6.69658
G1 X129.755 Y126.355 E6.73456
G1 X129.13 Y126.885 E6.77272
G1 X128.496 Y127.366 E6.80978
G1 X127.813 Y127.829 E6.8482
G1 X127.132 Y128.24 E6.88524
G1 X126.407 Y128.625 E6.92346
G1 X125.678 Y128.962 E6.96086
G1 X124.911 Y129.268 E6.99931
G1 X124.144 Y129.527 E7.037
G1 X123.353 Y129.746 E7.07522
G1 X122.571 Y129.917 E7.1125
G1 X121.757 Y130.05 E7.1509
G1 X120.969 Y130.136 E7.18781
G1 X120.149 Y130.181 E7.22605
G1 X119.339 Y130.181 E7.26377
G1 X118.518 Y130.136 E7.30206
G1 X117.73 Y130.05 E7.33897
G1 X116.916 Y129.917 E7.37737
G1 X116.126 Y129.743 E7.41504
G1 X115.335 Y129.523 E7.45327
G1 X114.584 Y129.27 E7.49017
G1 X113.817 Y128.965 E7.52861
G1 X113.08 Y128.625 E7.5664
G1 X112.355 Y128.24 E7.60462
G1 X111.674 Y127.829 E7.64166
G1 X110.991 Y127.366 E7.68008
G1 X110.357 Y126.885 E7.71714
G1 X109.732 Y126.355 E7.7553
G1 X109.14 Y125.794 E7.79327
G1 X108.573 Y125.194 E7.83171
G1 X108.065 Y124.595 E7.86829
G1 X107.566 Y123.94 E7.90663
G1 X107.111 Y123.27 E7.94434
G1 X106.687 Y122.565 E7.98265
G1 X106.313 Y121.861 E8.01977
G1 X105.967 Y121.114 E8.0581
G1 X105.664 Y120.349 E8.09641
G1 X105.404 Y119.571 E8.13461
G1 X105.197 Y118.824 E8.1707
G1 X105.019 Y118.019 E8.20909
G1 X104.888 Y117.222 E8.2467
G1 X104.799 Y116.405 E8.28497
G1 X104.755 Y115.604 E8.32233
G1 X104.755 Y114.782 E8.3606
G1 X104.798 Y113.983 E8.39786
G1 X104.887 Y113.164 E8.43622
G1 X105.019 Y112.365 E8.47393
G1 X105.197 Y111.56 E8.51232
G1 X105.404 Y110.813 E8.54841
G1 X105.664 Y110.035 E8.58661
G1 X105.967 Y109.27 E8.62492
G1 X106.313 Y108.523 E8.66326
G1 X106.687 Y107.819 E8.70038
G1 X107.111 Y107.114 E8.73869
G1 X107.566 Y106.444 E8.7764
G1 X108.065 Y105.789 E8.81474
G1 X108.573 Y105.19 E8.85131
G1 X109.14 Y104.59 E8.88975
G0 F6000 X109.43 Y104.865
G1 F1200 X109.991 Y104.334 E8.92572
G1 X110.616 Y103.804 E8.96388
G1 X111.215 Y103.349 E8.9989
G1 X111.898 Y102.886 E9.03733
G1 X112.543 Y102.498 E9.07237
G1 X113.268 Y102.113 E9.1106
G1 X113.957 Y101.793 E9.14597
G1 X114.724 Y101.487 E9.18442
G1 X115.45 Y101.243 E9.22009
G1 X116.241 Y101.024 E9.25831
G1 X116.98 Y100.862 E9.29353
G1 X117.794 Y100.729 E9.33194
G1 X118.54 Y100.647 E9.36689
G1 X119.361 Y100.602 E9.40517
G1 X120.128 Y100.603 E9.44089
G1 X120.948 Y100.648 E9.47913
G1 X121.693 Y100.729 E9.51402
G1 X122.507 Y100.862 E9.55243
G1 X123.254 Y101.026 E9.58804
G1 X124.045 Y101.246 E9.62627
G1 X124.756 Y101.485 E9.6612
G1 X125.523 Y101.79 E9.69963
G1 X126.219 Y102.113 E9.73536
G1 X126.944 Y102.498 E9.77359
G1 X127.589 Y102.886 E9.80863
G1 X128.272 Y103.349 E9.84706
G1 X128.871 Y103.804 E9.88208
G1 X129.496 Y104.334 E9.92024
G1 X130.057 Y104.865 E9.95621
G1 X130.624 Y105.465 E9.99465
G1 X131.104 Y106.031 E10.02921
G1 X131.603 Y106.686 E10.06755
G1 X132.033 Y107.319 E10.10318
G1 X132.456 Y108.022 E10.14138
G1 X132.81 Y108.689 E10.17655
G1 X133.156 Y109.436 E10.21488
G1 X133.44 Y110.149 E10.25062
G1 X133.702 Y110.929 E10.28893
G1 X133.9 Y111.643 E10.32343
G1 X134.078 Y112.446 E10.36173
G1 X134.203 Y113.205 E10.39755
G1 X134.292 Y114.024 E10.43591
G1 X134.333 Y114.78 E10.47116
G1 X134.333 Y115.602 E10.50944
G1 X134.292 Y116.358 E10.54469
G1 X134.203 Y117.177 E10.58305
G1 X134.079 Y117.932 E10.61868
G1 X133.901 Y118.737 E10.65707
G1 X133.703 Y119.452 E10.69162
G1 X133.442 Y120.23 E10.72983
G1 X133.157 Y120.946 E10.76571
G1 X132.811 Y121.693 E10.80405
G1 X132.458 Y122.359 E10.83914
G1 X132.034 Y123.064 E10.87745
G1 X131.603 Y123.698 E10.91315
G1 X131.104 Y124.353 E10.95149
G1 X130.624 Y124.919 E10.98605
G1 X130.057 Y125.519 E11.02449
G1 X129.496 Y126.05 E11.06046
G1 X128.871 Y126.58 E11.09861
G1 X128.272 Y127.035 E11.13364
G1 X127.589 Y127.498 E11.17206
G1 X126.944 Y127.886 E11.20711
G1 X126.219 Y128.271 E11.24534
G1 X125.53 Y128.591 E11.28071
G1 X124.763 Y128.897 E11.31916
G1 X124.037 Y129.141 E11.35483
G1 X123.246 Y129.36 E11.39304
G1 X122.507 Y129.522 E11.42827
G1 X121.693 Y129.655 E11.46668
G1 X120.948 Y129.736 E11.50157
G1 X120.128 Y129.781 E11.53981
G1 X119.361 Y129.782 E11.57553
G1 X118.54 Y129.737 E11.61381
G1 X117.794 Y129.655 E11.64876
G1 X116.98 Y129.522 E11.68717
G1 X116.233 Y129.358 E11.72278
G1 X115.442 Y129.138 E11.76101
G1 X114.731 Y128.899 E11.79594
G1 X113.964 Y128.594 E11.83437
G1 X113.268 Y128.271 E11.8701
G1 X112.543 Y127.886 E11.90832
G1 X111.898 Y127.498 E11.94337
G1 X111.215 Y127.035 E11.98179
G1 X110.616 Y126.58 E12.01682
G1 X109.991 Y126.05 E12.05498
G1 X109.43 Y125.519 E12.09095
G1 X108.863 Y124.919 E12.12939
G1 X108.383 Y124.353 E12.16394
G1 X107.884 Y123.698 E12.20229
G1 X107.453 Y123.064 E12.23798
G1 X107.029 Y122.359 E12.27629
G1 X106.676 Y121.693 E12.31139
G1 X106.33 Y120.946 E12.34972
G1 X106.043 Y120.223 E12.38594
G1 X105.783 Y119.445 E12.42414
G1 X105.587 Y118.737 E12.45835
G1 X105.409 Y117.932 E12.49674
G1 X105.285 Y117.179 E12.53227
G1 X105.196 Y116.362 E12.57054
G1 X105.155 Y115.604 E12.60589
G1 X105.155 Y114.782 E12.64416
G1 X105.196 Y114.026 E12.67942
G1 X105.285 Y113.207 E12.71778
G1 X105.409 Y112.452 E12.7534
G1 X105.587 Y111.647 E12.79179
G1 X105.783 Y110.939 E12.826
G1 X106.043 Y110.161 E12.8642
G1 X106.33 Y109.438 E12.90042
G1 X106.676 Y108.691 E12.93875
G1 X107.029 Y108.025 E12.97385
G1 X107.453 Y107.32 E13.01216
G1 X107.884 Y106.686 E13.04786
G1 X108.383 Y106.031 E13.0862
G1 X108.863 Y105.465 E13.12075
G1 X109.43 Y104.865 E13.15919
G0 F6000 X109.721 Y105.14
G1 F1200 X110.249 Y104.639 E13.19309
G1 X110.874 Y104.109 E13.23124
G1 X111.44 Y103.68 E13.26432
G1 X112.123 Y103.217 E13.30274
G1 X112.731 Y102.851 E13.33578
G1 X113.456 Y102.466 E13.37401
G1 X114.105 Y102.165 E13.40732
G1 X114.872 Y101.859 E13.44577
G1 X115.557 Y101.628 E13.47943
G1 X116.348 Y101.409 E13.51765
G1 X117.045 Y101.256 E13.55088
G1 X117.859 Y101.123 E13.58928
G1 X118.562 Y101.047 E13.62221
G1 X119.383 Y101.002 E13.6605
G1 X120.106 Y101.002 E13.69416
G1 X120.926 Y101.047 E13.7324
G1 X121.628 Y101.123 E13.76528
G1 X122.442 Y101.256 E13.80369
G1 X123.147 Y101.411 E13.8373
G1 X123.938 Y101.631 E13.87553
G1 X124.608 Y101.857 E13.90845
G1 X125.375 Y102.162 E13.94689
G1 X126.031 Y102.466 E13.98055
G1 X126.756 Y102.851 E14.01878
G1 X127.364 Y103.217 E14.05182
G1 X128.047 Y103.68 E14.09025
G1 X128.613 Y104.109 E14.12332
G1 X129.238 Y104.639 E14.16147
G1 X129.766 Y105.14 E14.19537
G1 X130.333 Y105.74 E14.23381
G1 X130.786 Y106.273 E14.26638
G1 X131.285 Y106.928 E14.30472
G1 X131.69 Y107.525 E14.33831
G1 X132.113 Y108.228 E14.37651
G1 X132.447 Y108.857 E14.40968
G1 X132.793 Y109.604 E14.44801
G1 X133.06 Y110.276 E14.48168
G1 X133.322 Y111.056 E14.52
G1 X133.51 Y111.73 E14.55258
G1 X133.688 Y112.533 E14.59088
G1 X133.805 Y113.248 E14.62461
G1 X133.894 Y114.067 E14.66297
G1 X133.933 Y114.78 E14.69622
G1 X133.933 Y115.602 E14.7345
G1 X133.894 Y116.315 E14.76775
G1 X133.805 Y117.134 E14.80611
G1 X133.688 Y117.846 E14.83971
G1 X133.51 Y118.651 E14.8781
G1 X133.323 Y119.325 E14.91067
G1 X133.062 Y120.103 E14.94888
G1 X132.794 Y120.778 E14.9827
G1 X132.448 Y121.525 E15.02103
G1 X132.115 Y122.153 E15.05413
G1 X131.691 Y122.858 E15.09244
G1 X131.285 Y123.456 E15.12609
G1 X130.786 Y124.111 E15.16443
G1 X130.333 Y124.644 E15.19701
G1 X129.766 Y125.244 E15.23545
G1 X129.238 Y125.745 E15.26934
G1 X128.613 Y126.275 E15.3075
G1 X128.047 Y126.704 E15.34057
G1 X127.364 Y127.167 E15.37899
G1 X126.756 Y127.533 E15.41203
G1 X126.031 Y127.918 E15.45026
G1 X125.382 Y128.219 E15.48357
G1 X124.615 Y128.525 E15.52202
G1 X123.93 Y128.756 E15.55568
G1 X123.139 Y128.975 E15.5939
G1 X122.442 Y129.128 E15.62713
G1 X121.628 Y129.261 E15.66553
G1 X120.926 Y129.337 E15.69841
G1 X120.106 Y129.382 E15.73665
G1 X119.383 Y129.382 E15.77032
G1 X118.562 Y129.337 E15.80861
G1 X117.859 Y129.261 E15.84153
G1 X117.045 Y129.128 E15.87994
G1 X116.34 Y128.973 E15.91355
G1 X115.549 Y128.753 E15.95178
G1 X114.879 Y128.527 E15.9847
G1 X114.112 Y128.222 E16.02314
G1 X113.456 Y127.918 E16.05681
G1 X112.731 Y127.533 E16.09503
G1 X112.123 Y127.167 E16.12807
G1 X111.44 Y126.704 E16.1665
G1 X110.874 Y126.275 E16.19957
G1 X110.249 Y125.745 E16.23772
G1 X109.721 Y125.244 E16.27162
G1 X109.154 Y124.644 E16.31006
G1 X108.701 Y124.111 E16.34263
G1 X108.202 Y123.456 E16.38097
G1 X107.796 Y122.858 E16.41463
G1 X107.372 Y122.153 E16.45293
G1 X107.039 Y121.525 E16.48603
G1 X106.693 Y120.778 E16.52437
G1 X106.422 Y120.096 E16.55854
G1 X106.162 Y119.318 E16.59674
G1 X105.978 Y118.651 E16.62895
G1 X105.8 Y117.846 E16.66734
G1 X105.683 Y117.136 E16.70085
G1 X105.594 Y116.319 E16.73912
G1 X105.555 Y115.604 E16.77246
G1 X105.555 Y114.782 E16.81074
G1 X105.594 Y114.069 E16.84399
G1 X105.683 Y113.25 E16.88235
G1 X105.8 Y112.538 E16.91594
G1 X105.978 Y111.733 E16.95433
G1 X106.162 Y111.066 E16.98655
G1 X106.422 Y110.288 E17.02475
G1 X106.693 Y109.606 E17.05892
G1 X107.039 Y108.859 E17.09725
G1 X107.372 Y108.231 E17.13035
G1 X107.796 Y107.526 E17.16866
G1 X108.202 Y106.928 E17.20232
G1 X108.701 Y106.273 E17.24066
G1 X109.154 Y105.74 E17.27323
G1 X109.721 Y105.14 E17.31167
G0 F6000 X110.012 Y105.415
G1 F1200 X110.508 Y104.944 E17.34352
G1 X111.133 Y104.414 E17.38168
G1 X111.664 Y104.011 E17.41272
G1 X112.347 Y103.548 E17.45114
G1 X112.918 Y103.204 E17.48218
G1 X113.643 Y102.819 E17.52041
G1 X114.254 Y102.536 E17.55176
G1 X115.021 Y102.23 E17.59021
G1 X115.664 Y102.014 E17.6218
G1 X116.455 Y101.795 E17.66001
G1 X117.109 Y101.651 E17.6912
G1 X117.923 Y101.518 E17.7296
G1 X118.584 Y101.446 E17.76056
G1 X119.405 Y101.401 E17.79885
G1 X120.084 Y101.401 E17.83047
G1 X120.904 Y101.446 E17.86871
G1 X121.564 Y101.518 E17.89962
G1 X122.378 Y101.651 E17.93803
G1 X123.039 Y101.797 E17.96955
G1 X123.83 Y102.017 E18.00778
G1 X124.46 Y102.229 E18.03873
G1 X125.227 Y102.534 E18.07717
G1 X125.844 Y102.819 E18.10881
G1 X126.569 Y103.204 E18.14704
G1 X127.14 Y103.548 E18.17808
G1 X127.823 Y104.011 E18.2165
G1 X128.354 Y104.414 E18.24754
G1 X128.979 Y104.944 E18.2857
G1 X129.475 Y105.415 E18.31755
G1 X130.042 Y106.015 E18.35599
G1 X130.468 Y106.516 E18.38661
G1 X130.967 Y107.171 E18.42495
G1 X131.347 Y107.731 E18.45646
