;FLAVOR:Marlin
;TIME:505
;Filament used: 0.296714m
;Layer height: 0.28
;MINX:102.111
;MINY:102.112
;MINZ:0.28
;MAXX:132.889
;MAXY:132.888
;MAXZ:10.08
;Generated with Cura_SteamEngine 4.13.1
M140 S50
M105
M190 S50
M104 S200
M105
M109 S200
M82 ;absolute extrusion mode
; Ender 3 Custom Start G-code
G92 E0 ; Reset Extruder
G28 ; Home all axes
G1 Z2.0 F3000 ; Move Z Axis up little to prevent scratching of Heat Bed
G1 X0.1 Y20 Z0.3 F5000.0 ; Move to start position
G1 X0.1 Y200.0 Z0.3 F1500.0 E15 ; Draw the first line
G1 X0.4 Y200.0 Z0.3 F5000.0 ; Move to side a little
G1 X0.4 Y20 Z0.3 F1500.0 E30 ; Draw the second line
G92 E0 ; Reset Extruder
G1 Z2.0 F3000 ; Move Z Axis up little to prevent scratching of Heat Bed
G1 X5 Y20 Z0.3 F5000.0 ; Move over to prevent blob squish
M141 S28
G92 E0
G92 E0
G1 F2700 E-5
;LAYER_COUNT:36
;LAYER:0
M107
G0 F6000 X106.6 Y106.629 Z0.28
;TYPE:SKIRT
G1 F2700 E0
G1 F1200 X107.234 Y106.028 E0.04068
G1 X107.86 Y105.498 E0.07887
G1 X108.523 Y104.995 E0.11762
G1 X109.206 Y104.532 E0.15604
G1 X109.925 Y104.099 E0.19513
G1 X110.65 Y103.714 E0.23335
G1 X111.414 Y103.36 E0.27256
G1 X112.18 Y103.054 E0.31097
G1 X112.993 Y102.78 E0.35092
G1 X113.784 Y102.561 E0.38913
G1 X114.607 Y102.38 E0.42837
G1 X115.421 Y102.247 E0.46678
G1 X116.252 Y102.157 E0.5057
G1 X117.073 Y102.112 E0.54399
G1 X117.927 Y102.112 E0.58375
G1 X118.748 Y102.157 E0.62204
G1 X119.579 Y102.247 E0.66096
G1 X120.393 Y102.38 E0.69937
G1 X121.225 Y102.563 E0.73903
G1 X122.016 Y102.783 E0.77726
G1 X122.811 Y103.051 E0.81633
G1 X123.577 Y103.356 E0.85472
G1 X124.35 Y103.714 E0.89439
G1 X125.075 Y104.099 E0.93261
G1 X125.794 Y104.532 E0.97169
G1 X126.477 Y104.995 E1.01012
G1 X127.14 Y105.498 E1.04887
G1 X127.766 Y106.028 E1.08706
G1 X128.4 Y106.629 E1.12774
G1 X128.966 Y107.229 E1.16615
G1 X129.497 Y107.854 E1.20433
G1 X129.996 Y108.509 E1.24268
G1 X130.47 Y109.208 E1.282
G1 X130.894 Y109.911 E1.32023
G1 X131.296 Y110.669 E1.36018
G1 X131.641 Y111.416 E1.3985
G1 X131.954 Y112.202 E1.43789
G1 X132.216 Y112.982 E1.4762
G1 X132.437 Y113.778 E1.51467
G1 X132.615 Y114.581 E1.55297
G1 X132.754 Y115.426 E1.59285
G1 X132.843 Y116.245 E1.63121
G1 X132.889 Y117.088 E1.67052
G1 X132.889 Y117.91 E1.70879
G1 X132.843 Y118.753 E1.74811
G1 X132.754 Y119.572 E1.78647
G1 X132.616 Y120.413 E1.82615
G1 X132.438 Y121.218 E1.86454
G1 X132.217 Y122.015 E1.90305
G1 X131.956 Y122.793 E1.94126
G1 X131.642 Y123.582 E1.98081
G1 X131.297 Y124.329 E2.01912
G1 X130.896 Y125.086 E2.05901
G1 X130.471 Y125.791 E2.09734
G1 X129.996 Y126.491 E2.13673
G1 X129.497 Y127.146 E2.17507
G1 X128.966 Y127.771 E2.21326
G1 X128.4 Y128.371 E2.25167
G1 X127.766 Y128.972 E2.29235
G1 X127.14 Y129.502 E2.33054
G1 X126.477 Y130.005 E2.36929
G1 X125.794 Y130.468 E2.40771
G1 X125.075 Y130.901 E2.44679
G1 X124.35 Y131.286 E2.48502
G1 X123.586 Y131.64 E2.52423
G1 X122.82 Y131.946 E2.56264
G1 X122.007 Y132.22 E2.60258
G1 X121.216 Y132.439 E2.6408
G1 X120.393 Y132.62 E2.68004
G1 X119.579 Y132.753 E2.71845
G1 X118.748 Y132.843 E2.75737
G1 X117.927 Y132.888 E2.79565
G1 X117.073 Y132.888 E2.83542
G1 X116.252 Y132.843 E2.87371
G1 X115.421 Y132.753 E2.91263
G1 X114.607 Y132.62 E2.95103
G1 X113.775 Y132.437 E2.9907
G1 X112.984 Y132.217 E3.02893
G1 X112.189 Y131.949 E3.068
G1 X111.423 Y131.644 E3.10639
G1 X110.65 Y131.286 E3.14606
G1 X109.925 Y130.901 E3.18428
G1 X109.206 Y130.468 E3.22336
G1 X108.523 Y130.005 E3.26178
G1 X107.86 Y129.502 E3.30053
G1 X107.234 Y128.972 E3.33873
G1 X106.6 Y128.371 E3.37941
G1 X106.034 Y127.771 E3.41781
G1 X105.503 Y127.146 E3.456
G1 X105.004 Y126.491 E3.49434
G1 X104.529 Y125.791 E3.53373
G1 X104.104 Y125.086 E3.57207
G1 X103.703 Y124.329 E3.61196
G1 X103.358 Y123.582 E3.65027
G1 X103.044 Y122.793 E3.68981
G1 X102.783 Y122.015 E3.72802
G1 X102.562 Y121.218 E3.76653
G1 X102.384 Y120.413 E3.80492
G1 X102.246 Y119.574 E3.84452
G1 X102.157 Y118.757 E3.88278
G1 X102.111 Y117.912 E3.92219
G1 X102.111 Y117.09 E3.96046
G1 X102.157 Y116.247 E3.99978
G1 X102.246 Y115.428 E4.03814
G1 X102.384 Y114.587 E4.07782
G1 X102.562 Y113.782 E4.11621
G1 X102.783 Y112.985 E4.15472
G1 X103.044 Y112.207 E4.19293
G1 X103.358 Y111.418 E4.23248
G1 X103.703 Y110.671 E4.27079
G1 X104.104 Y109.914 E4.31068
G1 X104.529 Y109.209 E4.34901
G1 X105.004 Y108.509 E4.3884
G1 X105.503 Y107.854 E4.42674
G1 X106.034 Y107.229 E4.46493
G1 X106.6 Y106.629 E4.50334
G0 F6000 X106.891 Y106.903
G1 F1200 X107.492 Y106.333 E4.54191
G1 X108.118 Y105.803 E4.5801
G1 X108.748 Y105.326 E4.6169
G1 X109.431 Y104.863 E4.65532
G1 X110.112 Y104.452 E4.69236
G1 X110.837 Y104.067 E4.73058
G1 X111.563 Y103.731 E4.76783
G1 X112.329 Y103.425 E4.80624
G1 X113.099 Y103.165 E4.84408
G1 X113.89 Y102.946 E4.8823
G1 X114.672 Y102.775 E4.91958
G1 X115.486 Y102.642 E4.95798
G1 X116.274 Y102.556 E4.99489
G1 X117.095 Y102.511 E5.03318
G1 X117.905 Y102.511 E5.0709
G1 X118.726 Y102.556 E5.10918
G1 X119.514 Y102.642 E5.14609
G1 X120.328 Y102.775 E5.1845
G1 X121.118 Y102.949 E5.22217
G1 X121.909 Y103.169 E5.2604
G1 X122.663 Y103.423 E5.29744
G1 X123.429 Y103.728 E5.33584
G1 X124.163 Y104.067 E5.37348
G1 X124.888 Y104.452 E5.41171
G1 X125.569 Y104.863 E5.44874
G1 X126.252 Y105.326 E5.48717
G1 X126.882 Y105.803 E5.52396
G1 X127.508 Y106.333 E5.56215
G1 X128.109 Y106.903 E5.60072
G1 X128.675 Y107.503 E5.63913
G1 X129.178 Y108.097 E5.67538
G1 X129.677 Y108.752 E5.71372
G1 X130.128 Y109.414 E5.75102
G1 X130.552 Y110.117 E5.78925
G1 X130.933 Y110.836 E5.82713
G1 X131.278 Y111.583 E5.86545
G1 X131.575 Y112.33 E5.90288
G1 X131.837 Y113.11 E5.94119
G1 X132.047 Y113.865 E5.97769
G1 X132.225 Y114.668 E6.01598
G1 X132.357 Y115.47 E6.05383
G1 X132.446 Y116.289 E6.09219
G1 X132.489 Y117.088 E6.12945
G1 X132.489 Y117.91 E6.16773
G1 X132.446 Y118.709 E6.20498
G1 X132.357 Y119.528 E6.24335
G1 X132.225 Y120.327 E6.28105
G1 X132.047 Y121.132 E6.31944
G1 X131.838 Y121.888 E6.35597
G1 X131.577 Y122.666 E6.39418
G1 X131.279 Y123.415 E6.43171
G1 X130.934 Y124.162 E6.47003
G1 X130.554 Y124.879 E6.50781
G1 X130.129 Y125.584 E6.54614
G1 X129.677 Y126.248 E6.58355
G1 X129.178 Y126.903 E6.62189
G1 X128.675 Y127.497 E6.65813
G1 X128.109 Y128.097 E6.69654
G1 X127.508 Y128.667 E6.73511
G1 X126.882 Y129.197 E6.7733
G1 X126.252 Y129.674 E6.8101
G1 X125.569 Y130.137 E6.84852
G1 X124.888 Y130.548 E6.88556
G1 X124.163 Y130.933 E6.92378
G1 X123.437 Y131.269 E6.96103
G1 X122.671 Y131.575 E6.99944
G1 X121.901 Y131.835 E7.03729
G1 X121.11 Y132.054 E7.0755
G1 X120.328 Y132.225 E7.11278
G1 X119.514 Y132.358 E7.15118
G1 X118.726 Y132.444 E7.18809
G1 X117.905 Y132.489 E7.22638
G1 X117.095 Y132.489 E7.2641
G1 X116.274 Y132.444 E7.30238
G1 X115.486 Y132.358 E7.33929
G1 X114.672 Y132.225 E7.3777
G1 X113.882 Y132.051 E7.41537
G1 X113.091 Y131.831 E7.4536
G1 X112.337 Y131.577 E7.49065
G1 X111.571 Y131.272 E7.52904
G1 X110.837 Y130.933 E7.56668
G1 X110.112 Y130.548 E7.60491
G1 X109.431 Y130.137 E7.64195
G1 X108.748 Y129.674 E7.68037
G1 X108.118 Y129.197 E7.71716
G1 X107.492 Y128.667 E7.75536
G1 X106.891 Y128.097 E7.79393
G1 X106.325 Y127.497 E7.83233
G1 X105.822 Y126.903 E7.86858
G1 X105.323 Y126.248 E7.90692
G1 X104.871 Y125.584 E7.94432
G1 X104.446 Y124.879 E7.98265
G1 X104.066 Y124.162 E8.02044
G1 X103.721 Y123.415 E8.05875
G1 X103.423 Y122.666 E8.09629
G1 X103.162 Y121.888 E8.1345
G1 X102.953 Y121.132 E8.17102
G1 X102.775 Y120.327 E8.20941
G1 X102.644 Y119.53 E8.24702
G1 X102.555 Y118.713 E8.28529
G1 X102.511 Y117.912 E8.32264
G1 X102.511 Y117.09 E8.36092
G1 X102.554 Y116.291 E8.39818
G1 X102.643 Y115.472 E8.43654
G1 X102.775 Y114.673 E8.47425
G1 X102.953 Y113.868 E8.51264
G1 X103.162 Y113.112 E8.54916
G1 X103.423 Y112.334 E8.58737
G1 X103.721 Y111.585 E8.62491
G1 X104.066 Y110.838 E8.66322
G1 X104.446 Y110.121 E8.70101
G1 X104.871 Y109.416 E8.73934
G1 X105.323 Y108.752 E8.77674
G1 X105.822 Y108.097 E8.81508
G1 X106.325 Y107.503 E8.85133
G1 X106.891 Y106.903 E8.88973
G0 F6000 X107.182 Y107.178
G1 F1200 X107.751 Y106.639 E8.92623
G1 X108.377 Y106.109 E8.96442
G1 X108.972 Y105.657 E8.99922
G1 X109.655 Y105.194 E9.03764
G1 X110.3 Y104.806 E9.07269
G1 X111.025 Y104.421 E9.11091
G1 X111.711 Y104.102 E9.14614
G1 X112.477 Y103.796 E9.18455
G1 X113.206 Y103.551 E9.22036
G1 X113.997 Y103.332 E9.25858
G1 X114.736 Y103.17 E9.29381
G1 X115.55 Y103.037 E9.33221
G1 X116.296 Y102.955 E9.36716
G1 X117.117 Y102.91 E9.40544
G1 X117.883 Y102.91 E9.44111
G1 X118.704 Y102.955 E9.4794
G1 X119.45 Y103.037 E9.51434
G1 X120.264 Y103.17 E9.55275
G1 X121.011 Y103.334 E9.58836
G1 X121.802 Y103.554 E9.62659
G1 X122.515 Y103.795 E9.66164
G1 X123.281 Y104.1 E9.70003
G1 X123.975 Y104.421 E9.73563
G1 X124.7 Y104.806 E9.77386
G1 X125.345 Y105.194 E9.80891
G1 X126.028 Y105.657 E9.84733
G1 X126.623 Y106.109 E9.88212
G1 X127.249 Y106.639 E9.92032
G1 X127.818 Y107.178 E9.95681
G1 X128.384 Y107.778 E9.99522
G1 X128.86 Y108.339 E10.02948
G1 X129.359 Y108.994 E10.06782
G1 X129.785 Y109.621 E10.10312
G1 X130.209 Y110.324 E10.14135
G1 X130.57 Y111.004 E10.17719
G1 X130.915 Y111.751 E10.21551
G1 X131.196 Y112.457 E10.25089
G1 X131.458 Y113.237 E10.2892
G1 X131.656 Y113.951 E10.32371
G1 X131.834 Y114.754 E10.36201
G1 X131.959 Y115.513 E10.39782
G1 X132.048 Y116.332 E10.43618
G1 X132.089 Y117.088 E10.47144
G1 X132.089 Y117.91 E10.50971
G1 X132.048 Y118.666 E10.54497
G1 X131.959 Y119.485 E10.58333
G1 X131.835 Y120.24 E10.61896
G1 X131.657 Y121.045 E10.65735
G1 X131.459 Y121.76 E10.69189
G1 X131.198 Y122.538 E10.7301
G1 X130.916 Y123.247 E10.76563
G1 X130.571 Y123.994 E10.80395
G1 X130.211 Y124.673 E10.83973
G1 X129.786 Y125.378 E10.87806
G1 X129.359 Y126.006 E10.91343
G1 X128.86 Y126.661 E10.95177
G1 X128.384 Y127.222 E10.98603
G1 X127.818 Y127.822 E11.02443
G1 X127.249 Y128.361 E11.06093
G1 X126.623 Y128.891 E11.09912
G1 X126.028 Y129.343 E11.13392
G1 X125.345 Y129.806 E11.17234
G1 X124.7 Y130.194 E11.20739
G1 X123.975 Y130.579 E11.24561
G1 X123.289 Y130.898 E11.28084
G1 X122.523 Y131.204 E11.31925
G1 X121.794 Y131.449 E11.35506
G1 X121.003 Y131.668 E11.39328
G1 X120.264 Y131.83 E11.4285
G1 X119.45 Y131.963 E11.46691
G1 X118.704 Y132.045 E11.50186
G1 X117.883 Y132.09 E11.54014
G1 X117.117 Y132.09 E11.57581
G1 X116.296 Y132.045 E11.6141
G1 X115.55 Y131.963 E11.64904
G1 X114.736 Y131.83 E11.68745
G1 X113.989 Y131.666 E11.72306
G1 X113.198 Y131.446 E11.76129
G1 X112.485 Y131.205 E11.79634
G1 X111.719 Y130.9 E11.83473
G1 X111.025 Y130.579 E11.87033
G1 X110.3 Y130.194 E11.90856
G1 X109.655 Y129.806 E11.94361
G1 X108.972 Y129.343 E11.98203
G1 X108.377 Y128.891 E12.01682
G1 X107.751 Y128.361 E12.05502
G1 X107.182 Y127.822 E12.09151
G1 X106.616 Y127.222 E12.12992
G1 X106.14 Y126.661 E12.16418
G1 X105.641 Y126.006 E12.20252
G1 X105.214 Y125.378 E12.23788
G1 X104.789 Y124.673 E12.27621
G1 X104.429 Y123.994 E12.312
G1 X104.084 Y123.247 E12.35031
G1 X103.802 Y122.538 E12.38584
G1 X103.541 Y121.76 E12.42405
G1 X103.343 Y121.045 E12.4586
G1 X103.165 Y120.24 E12.49699
G1 X103.041 Y119.487 E12.53252
G1 X102.952 Y118.67 E12.57079
G1 X102.911 Y117.912 E12.60614
G1 X102.911 Y117.09 E12.64442
G1 X102.952 Y116.334 E12.67967
G1 X103.041 Y115.515 E12.71803
G1 X103.165 Y114.76 E12.75366
G1 X103.343 Y113.955 E12.79205
G1 X103.541 Y113.24 E12.82659
G1 X103.802 Y112.462 E12.8648
G1 X104.084 Y111.753 E12.90033
G1 X104.429 Y111.006 E12.93865
G1 X104.789 Y110.327 E12.97443
G1 X105.214 Y109.622 E13.01277
G1 X105.641 Y108.994 E13.04813
G1 X106.14 Y108.339 E13.08647
G1 X106.616 Y107.778 E13.12073
G1 X107.182 Y107.178 E13.15914
G0 F6000 X107.473 Y107.452
G1 F1200 X108.009 Y106.944 E13.19352
G1 X108.635 Y106.414 E13.23172
G1 X109.197 Y105.988 E13.26455
G1 X109.88 Y105.525 E13.30298
G1 X110.488 Y105.159 E13.33602
G1 X111.213 Y104.774 E13.37424
G1 X111.86 Y104.474 E13.40745
G1 X112.626 Y104.168 E13.44586
G1 X113.313 Y103.936 E13.47963
G1 X114.104 Y103.717 E13.51784
G1 X114.801 Y103.564 E13.55107
G1 X115.615 Y103.431 E13.58948
G1 X116.318 Y103.355 E13.6224
G1 X117.139 Y103.31 E13.66069
G1 X117.861 Y103.31 E13.69431
G1 X118.682 Y103.355 E13.7326
G1 X119.385 Y103.431 E13.76552
G1 X120.199 Y103.564 E13.80393
G1 X120.904 Y103.719 E13.83754
G1 X121.695 Y103.939 E13.87577
G1 X122.368 Y104.166 E13.90884
G1 X123.134 Y104.471 E13.94723
G1 X123.787 Y104.774 E13.98075
G1 X124.512 Y105.159 E14.01898
G1 X125.12 Y105.525 E14.05202
G1 X125.803 Y105.988 E14.09044
G1 X126.365 Y106.414 E14.12328
G1 X126.991 Y106.944 E14.16147
G1 X127.527 Y107.452 E14.19586
G1 X128.093 Y108.052 E14.23427
G1 X128.542 Y108.581 E14.26658
G1 X129.041 Y109.236 E14.30492
G1 X129.443 Y109.827 E14.3382
G1 X129.867 Y110.53 E14.37643
G1 X130.207 Y111.172 E14.41026
G1 X130.552 Y111.919 E14.44857
G1 X130.816 Y112.584 E14.48189
G1 X131.078 Y113.364 E14.5202
G1 X131.266 Y114.038 E14.55278
G1 X131.444 Y114.841 E14.59108
G1 X131.561 Y115.556 E14.62482
G1 X131.65 Y116.375 E14.66318
G1 X131.689 Y117.088 E14.69643
G1 X131.689 Y117.91 E14.73471
G1 X131.65 Y118.623 E14.76796
G1 X131.561 Y119.442 E14.80632
G1 X131.444 Y120.154 E14.83991
G1 X131.266 Y120.959 E14.8783
G1 X131.079 Y121.633 E14.91087
G1 X130.818 Y122.411 E14.94908
G1 X130.553 Y123.079 E14.98255
G1 X130.208 Y123.826 E15.02086
G1 X129.868 Y124.466 E15.05461
G1 X129.443 Y125.171 E15.09294
G1 X129.041 Y125.764 E15.1263
G1 X128.542 Y126.419 E15.16464
G1 X128.093 Y126.948 E15.19695
G1 X127.527 Y127.548 E15.23536
G1 X126.991 Y128.056 E15.26974
G1 X126.365 Y128.586 E15.30794
G1 X125.803 Y129.012 E15.34077
G1 X125.12 Y129.475 E15.3792
G1 X124.512 Y129.841 E15.41224
G1 X123.787 Y130.226 E15.45047
G1 X123.14 Y130.526 E15.48367
G1 X122.374 Y130.832 E15.52208
G1 X121.687 Y131.064 E15.55585
G1 X120.896 Y131.283 E15.59406
G1 X120.199 Y131.436 E15.62729
G1 X119.385 Y131.569 E15.6657
G1 X118.682 Y131.645 E15.69862
G1 X117.861 Y131.69 E15.73691
G1 X117.139 Y131.69 E15.77053
G1 X116.318 Y131.645 E15.80882
G1 X115.615 Y131.569 E15.84174
G1 X114.801 Y131.436 E15.88015
G1 X114.096 Y131.281 E15.91376
G1 X113.305 Y131.061 E15.95199
G1 X112.632 Y130.834 E15.98506
G1 X111.866 Y130.529 E16.02345
G1 X111.213 Y130.226 E16.05697
G1 X110.488 Y129.841 E16.0952
G1 X109.88 Y129.475 E16.12824
G1 X109.197 Y129.012 E16.16666
G1 X108.635 Y128.586 E16.1995
G1 X108.009 Y128.056 E16.2377
G1 X107.473 Y127.548 E16.27208
G1 X106.907 Y126.948 E16.31049
G1 X106.458 Y126.419 E16.3428
G1 X105.959 Y125.764 E16.38114
G1 X105.557 Y125.171 E16.4145
G1 X105.132 Y124.466 E16.45283
G1 X104.792 Y123.826 E16.48658
G1 X104.447 Y123.079 E16.52489
G1 X104.182 Y122.411 E16.55835
G1 X103.921 Y121.633 E16.59657
G1 X103.734 Y120.959 E16.62914
G1 X103.556 Y120.154 E16.66753
G1 X103.439 Y119.444 E16.70103
G1 X103.35 Y118.627 E16.7393
G1 X103.311 Y117.912 E16.77264
G1 X103.311 Y117.09 E16.81092
G1 X103.35 Y116.377 E16.84417
G1 X103.439 Y115.558 E16.88253
G1 X103.556 Y114.846 E16.91613
G1 X103.734 Y114.041 E16.95452
G1 X103.921 Y113.367 E16.98709
G1 X104.182 Y112.589 E17.0253
G1 X104.447 Y111.921 E17.05876
G1 X104.792 Y111.174 E17.09707
G1 X105.132 Y110.534 E17.13082
G1 X105.557 Y109.829 E17.16915
G1 X105.959 Y109.236 E17.20251
G1 X106.458 Y108.581 E17.24085
G1 X106.907 Y108.052 E17.27316
G1 X107.473 Y107.452 E17.31157
G0 F6000 X107.764 Y107.727
G1 F1200 X108.268 Y107.249 E17.34391
G1 X108.894 Y106.719 E17.38211
G1 X109.421 Y106.319 E17.41291
G1 X110.104 Y105.856 E17.45134
G1 X110.675 Y105.512 E17.48238
G1 X111.4 Y105.127 E17.5206
G1 X112.008 Y104.845 E17.55181
G1 X112.774 Y104.539 E17.59022
G1 X113.42 Y104.322 E17.62195
G1 X114.211 Y104.103 E17.66017
G1 X114.865 Y103.959 E17.69135
G1 X115.679 Y103.826 E17.72976
G1 X116.34 Y103.754 E17.76072
G1 X117.161 Y103.709 E17.799
G1 X117.839 Y103.709 E17.83057
G1 X118.66 Y103.754 E17.86886
G1 X119.321 Y103.826 E17.89982
G1 X120.135 Y103.959 E17.93823
G1 X120.796 Y104.105 E17.96975
G1 X121.587 Y104.325 E18.00798
G1 X122.22 Y104.538 E18.03908
G1 X122.986 Y104.843 E18.07747
G1 X123.6 Y105.127 E18.10897
G1 X124.325 Y105.512 E18.14719
G1 X124.896 Y105.856 E18.17823
G1 X125.579 Y106.319 E18.21666
G1 X126.106 Y106.719 E18.24746
G1 X126.732 Y107.249 E18.28566
G1 X127.236 Y107.727 E18.318
G1 X127.802 Y108.327 E18.35641
G1 X128.224 Y108.824 E18.38677
G1 X128.723 Y109.479 E18.42511
